X: 06058
T: MISS COOPER'S JIG
C: Bob McQuillen 31 Mar 82
B: Bob's Note Book 6 #58
%R: jig
Z: 2021 John Chambers <jc:trillian.mit.edu>
M: 6/8
L: 1/8
K: Em
B,2D \
| EFG GBe | d2B A2B | GAG E2B, | D2B, A,B,D |\
| EFG ABe | dBG A2d | BAG F2D | E3 :|
|: e2f \
| gag gdB | ded def | gag e2B | d3 B2d |\
| ege ded | B2d A2B | GAG E2D | E3 :|
%%begintext align
%% Robin Cooper has always gone out
%% of her way to be nice to us when
%% we play in the Concord-Boston area -
%% Thanks so much, Robin!
%%endtext

%%sep 1 1 500

%%sep 1 1 500

